!!!OTL: Schuettensam
!!!ARE: Europa, Mitteleuropa, Deutschland
!!!SCT: A0373A
!!!YEM: Copyright 1995, estate of Helmut Schaffrath.
**kern
*ICvox
*Ivox
!! Mixed meters:  4/2; 6/2
*M4/2
*k[f#]
*G:
=1
{2g
2g
2g
=2
2dd
2dd
2ee
2ee
=3
1cc
2r}
{2cc
=4
2.dd
4ee
2ffn
[2gg
=5
2gg]
2ffn
1ee
=6
1dd
2r}
{2dd
=7
2.ffn
4ee
2dd
2cc
=8
4b-
4a
4b-
4cc
1dd}
=9
{2.ffn
4ee
=10
*M6/2
2dd
1cc
2b-
1a
=11
1g
2r}
{2dd
2dd
2dd
=12
*M4/2
2cc
2a
2b-
2g
=13
1fn
2r}
{2ffn
=14
2ffn
2dd
2ee
2ffn
=15
1gg
2.ffn
4ee}
=16
{4dd
4ee
4ffn
4ee
2dd
4cc
4b-
=17
1a
2r}
{2g
=18
*M6/2
2b-
1cc
2b-
1a
=19
*M4/2
0g
=20
2r}
==
!!!AGN: Romanze, Ballade, Lied, Personenlied
!! Aus einem fliegenden Blatt von 1540.
!!!ONB: ESAC (Essen Associative Code) Database: ALTDEU
!!!AMT: irregular
!!!AIN: vox
!!!EED: Helmut Schaffrath
!!!EEV: 1.0
*-
